src/pos-icons/battery-charging-outline.svg

<svg height="24" viewBox="0 0 24 24" width="24" xmlns="http://www.w3.org/2000/svg"><path d="m23.05 11h-3v-7l-5 10h3v8m-6.05-2h-8l.05-14h8m.67-2h-1.67v-2h-6v2h-1.67a1.33 1.33 0 0 0 -1.33 1.33v15.34c0 .73.6 1.33 1.33 1.33h9.34c.73 0 1.33-.6 1.33-1.33v-15.34a1.33 1.33 0 0 0 -1.33-1.33z"/></svg>

<?xml version="1.0" encoding="UTF-8"?><!DOCTYPE svg PUBLIC "-//W3C//DTD SVG 1.1//EN" "http://www.w3.org/Graphics/SVG/1.1/DTD/svg11.dtd"><svg xmlns="http://www.w3.org/2000/svg" xmlns:xlink="http://www.w3.org/1999/xlink" version="1.1" id="mdi-battery-charging-outline" width="24" height="24" viewBox="0 0 24 24"><path d="M23.05,11H20.05V4L15.05,14H18.05V22M12,20H4L4.05,6H12.05M12.72,4H11.05V2H5.05V4H3.38A1.33,1.33 0 0,0 2.05,5.33V20.67C2.05,21.4 2.65,22 3.38,22H12.72C13.45,22 14.05,21.4 14.05,20.67V5.33A1.33,1.33 0 0,0 12.72,4Z" /></svg>
